icons/1_Primary/Blur.svg

<svg width="1024" height="1024" viewBox="0 0 1024 1024" fill="none" xmlns="http://www.w3.org/2000/svg">
<g clip-path="url(#clip0_2_1695)">
<path d="M512 1024C794.77 1024 1024 794.77 1024 512C1024 229.23 794.77 0 512 0C229.23 0 0 229.23 0 512C0 794.77 229.23 1024 512 1024Z" fill="#9ABEFF"/>
<path d="M399.92 276.35H557.72C588.49 276.79 620.03 283.59 645.93 300.88C669.44 316.19 686.66 340.52 693.93 367.59C699.79 390 700.71 414.06 694.54 436.5C689.82 453.36 680.94 469.24 668.27 481.39C636.71 481.95 605.1 481.39 573.53 481.64L571.41 482.64C571.57 481.27 572.94 480.75 574.21 480.7C592.7 476.7 609.95 465.95 620.44 450.05C630.93 434.15 634.04 414.23 631.19 395.61C629.963 386.419 626.82 377.589 621.964 369.691C617.108 361.793 610.647 355.002 603 349.76C586 338 564.85 334 544.46 333.85C518.02 333.85 491.58 333.78 465.16 333.85V481.59H399.46C399.23 473.7 399.26 465.8 399.46 457.92C399.28 451.92 399.28 445.85 399.46 439.81C399.3 434.87 399.31 429.93 399.46 424.99V415.11C399.46 392.11 399.3 369.01 399.46 345.97C399.39 330.61 399.23 315.23 399.46 299.87C399.119 292.028 399.272 284.172 399.92 276.35ZM277 427.86C300.74 422.74 326.5 429.21 345.39 444.36C354.008 451.223 361.177 459.729 366.482 469.385C371.786 479.041 375.12 489.655 376.29 500.61C488.883 500.656 601.48 500.656 714.08 500.61C714.08 489.02 714 477.43 714.16 465.84H736.62C736.72 477.41 736.62 489 736.62 500.58H752.05C752.05 488.99 751.98 477.38 752.13 465.81H781.73V540.81H686.73C708.73 567.94 717.4 604.6 711.84 638.88C707.094 670.398 690.036 698.746 664.41 717.7C638.73 737.01 606.61 745.8 574.85 747.53H399.29V540.79H370.4C360.06 564.79 338.25 583.71 312.61 589.45C289.89 595.16 264.98 590.16 245.84 576.79C224.96 562.58 211.66 538.33 210.26 513.18V504.5C211.26 491.05 215.05 477.71 222.16 466.21C228.15 456.371 236.117 447.882 245.556 441.281C254.996 434.68 265.703 430.11 277 427.86ZM283.47 449.1C257.24 453 235.38 475.85 232.83 502.28C231.867 510.988 232.799 519.802 235.563 528.117C238.326 536.432 242.856 544.05 248.84 550.45C254.825 556.849 262.123 561.879 270.233 565.193C278.344 568.507 287.076 570.027 295.83 569.65C317.59 569.17 338.39 555.79 348 536.3C361 511.62 353.78 478.53 331.57 461.64C318.28 450.77 300.32 446.43 283.47 449.11M465.39 540.94C464.91 587.88 465.39 634.84 465.14 681.8C465.044 684.746 465.381 687.691 466.14 690.54C496.14 690.16 526.14 690.54 556.14 690.36C565.94 689.67 575.88 689.42 585.44 686.9C604.78 682.52 623.37 671.9 634.52 655.16C647.39 636.16 648.88 611.37 643.03 589.65C640.513 580.343 636.025 571.687 629.869 564.267C623.712 556.848 616.032 550.84 607.35 546.65C601.47 544.07 595.51 540.76 588.91 540.89C547.716 540.923 506.526 540.936 465.34 540.93L465.39 540.94Z" fill="white"/>
</g>
<defs>
<clipPath id="clip0_2_1695">
<rect width="1024" height="1024" fill="white"/>
</clipPath>
</defs>
</svg>

<svg xmlns="http://www.w3.org/2000/svg" viewBox="0 0 1024 1024">
   <circle cx="512" cy="512" r="512" style="fill:#0099de"/>
   <path d="M399.92 276.35h157.8c30.77.44 62.31 7.24 88.21 24.53 23.51 15.31 40.73 39.64 48 66.71 5.86 22.41 6.78 46.47.61 68.91-4.72 16.86-13.6 32.74-26.27 44.89-31.56.56-63.17 0-94.74.25l-2.12 1c.16-1.37 1.53-1.89 2.8-1.94 18.49-4 35.74-14.75 46.23-30.65s13.6-35.82 10.75-54.44A66.21 66.21 0 0 0 603 349.76C586 338 564.85 334 544.46 333.85c-26.44 0-52.88-.07-79.3 0v147.74h-65.7c-.23-7.89-.2-15.79 0-23.67-.18-6-.18-12.07 0-18.11-.16-4.94-.15-9.88 0-14.82v-9.88c0-23-.16-46.1 0-69.14-.07-15.36-.23-30.74 0-46.1a186.76 186.76 0 0 1 .46-23.52ZM277 427.86c23.74-5.12 49.5 1.35 68.39 16.5a83.2 83.2 0 0 1 30.9 56.25q168.89.07 337.79 0c0-11.59-.08-23.18.08-34.77h22.46c.1 11.57 0 23.16 0 34.74h15.43c0-11.59-.07-23.2.08-34.77h29.6v75h-95c22 27.13 30.67 63.79 25.11 98.07a120.32 120.32 0 0 1-47.43 78.82c-25.68 19.31-57.8 28.1-89.56 29.83H399.29V540.79H370.4c-10.34 24-32.15 42.92-57.79 48.66-22.72 5.71-47.63.71-66.77-12.66-20.88-14.21-34.18-38.46-35.58-63.61v-8.68c1-13.45 4.79-26.79 11.9-38.29A83.24 83.24 0 0 1 277 427.86m6.47 21.24c-26.23 3.9-48.09 26.75-50.64 53.18a60.75 60.75 0 0 0 63 67.37c21.76-.48 42.56-13.86 52.17-33.35 13-24.68 5.78-57.77-16.43-74.66-13.29-10.87-31.25-15.21-48.1-12.53m181.92 91.83c-.48 46.94 0 93.9-.25 140.86a30.12 30.12 0 0 0 1 8.74c30-.38 60 0 90-.18 9.8-.69 19.74-.94 29.3-3.46 19.34-4.38 37.93-15 49.08-31.74 12.87-19 14.36-43.79 8.51-65.51a67.23 67.23 0 0 0-35.68-43c-5.88-2.58-11.84-5.89-18.44-5.76q-61.79.05-123.57.04Z" style="fill:#fff"/>
</svg>
